img/svg/input_file.svg

<svg width="16" height="20" viewBox="0 0 16 20" fill="none" xmlns="http://www.w3.org/2000/svg">
<path fill-rule="evenodd" clip-rule="evenodd" d="M15.9051 8.946L11.1904 18.845C10.7181 19.846 9.51436 20.279 8.50183 19.812L1.16831 16.431C0.155774 15.964 -0.282214 14.774 0.190166 13.773L6.18747 1.155C6.65884 0.154 7.86255 -0.279 8.87609 0.188L13.4593 2.301C14.4718 2.768 14.9098 3.958 14.4374 4.959L10.1506 13.952C9.67823 14.953 8.47452 15.386 7.46199 14.919L5.62911 14.074C4.61557 13.607 4.17758 12.417 4.64996 11.416L7.65417 5.142C7.89087 4.641 8.49273 4.425 8.99849 4.658C9.50526 4.892 9.72375 5.487 9.48806 5.987L6.91172 11.355C6.67502 11.855 6.89452 12.45 7.40028 12.684C7.90705 12.917 8.50891 12.701 8.74459 12.2L12.1767 5.021C12.4124 4.52 12.1939 3.924 11.6871 3.691L8.93678 2.423C8.43102 2.19 7.82917 2.406 7.59348 2.907L2.45294 13.708C2.21523 14.211 2.43574 14.808 2.94454 15.043L8.43608 17.575C8.94487 17.809 9.54976 17.592 9.78646 17.089L14.0713 8.101C14.308 7.6 14.9098 7.384 15.4156 7.617C15.9223 7.85 16.1408 8.446 15.9051 8.946Z" fill="white"/>
</svg>

<svg width="16" height="20" fill="none" xmlns="http://www.w3.org/2000/svg"><path fill-rule="evenodd" clip-rule="evenodd" d="M15.905 8.946l-4.715 9.899a2.033 2.033 0 01-2.688.967l-7.334-3.381a1.99 1.99 0 01-.978-2.658L6.187 1.155a2.032 2.032 0 012.69-.967l4.582 2.113a1.99 1.99 0 01.978 2.658l-4.286 8.993a2.033 2.033 0 01-2.689.967l-1.833-.845a1.99 1.99 0 01-.979-2.658l3.004-6.274a1.017 1.017 0 011.344-.484.996.996 0 01.49 1.329l-2.576 5.368a.995.995 0 00.488 1.329 1.016 1.016 0 001.345-.484l3.432-7.179a.996.996 0 00-.49-1.33l-2.75-1.268a1.016 1.016 0 00-1.344.484l-5.14 10.801a1 1 0 00.492 1.335l5.491 2.532a1.021 1.021 0 001.35-.486l4.285-8.988a1.017 1.017 0 011.345-.484.995.995 0 01.49 1.329z" fill="#fff"/></svg>
